X: 07115
T: TONY ASCH'S REEL
C: Bob McQuillen 12 Feb 89
B: Bob's Note Book 7 #115
%R: reel
Z: 2019 John Chambers <jc:trillian.mit.edu>
M: C
L: 1/8
K: A
AF \
| E2CE FEAc | BAFA ECB,C | A,CEA cedc | BABc B2cB |
| AECE FEAc | BAFA EAce | dcdf ecBd | c2A2 A2 :|
|: AF \
| EFAB cAFA | EFAc BAFA | cAce faec | eaec B2AF |
| EFAB cAFA | EFAc BAce | fefa ecaf | ecBc A2 :|
%%begintext align
%% Tony is a good friend
%% who always works hard at the Dawn Dances in
%% Brattleboro (Vt). We'd all be in rough shape if
%% he and Kathy Lovell ever stopped dispensing
%% all those goodies we enjoy so much!
%%endtext
